X:380
T:
R:polska
S:Efter fanjunkaren Lindbom i Sanda.
O:Gotland, Sanda
M:3/4
L:1/16
K:G
gfga bfge e2d2|cBcd eBcA A2G2|G,B,DG BdcB B2A2|A,CEA cedc c2B2|
B,DGB dBgf e2d2|dbdb caca BgBg|bdef gBcd ecAG|FDEF G4 G,4::
b2ab d'c'ab g2dc|B2AB dcAB G2DB,|G,B,DG BdcB B2A2|A,CEA cedc c2B2|
B,DGB dBgf e2d2|dbdb caca BgBg|bdef gBcd ecAG|FDEF G4 G,4:|

